admin/src/images/Support.svg

<svg width="24" height="24" viewBox="0 0 24 24" fill="none" xmlns="http://www.w3.org/2000/svg">
<path fill-rule="evenodd" clip-rule="evenodd" d="M12 2C6.45345 2 2 6.60448 2 12.2308V16C1.44771 16 1 16.4477 1 17V18C1 18.5523 1.44771 19 2 19V21C2 21.5523 2.44772 22 3 22H5C6.65683 22 8 20.6568 8 19V16C8 14.3432 6.65683 13 5 13H4V12.2308C4 7.66102 7.60545 4 12 4C16.3946 4 20 7.66102 20 12.2308V13H19C17.3432 13 16 14.3432 16 16V19C16 20.6568 17.3432 22 19 22H21C21.5523 22 22 21.5523 22 21V19C22.5523 19 23 18.5523 23 18V17C23 16.4477 22.5523 16 22 16V12.2308C22 6.60448 17.5465 2 12 2ZM20 15H19C18.4477 15 18 15.4477 18 16V19C18 19.5523 18.4477 20 19 20H20V15ZM4 20V15H5C5.55227 15 6 15.4477 6 16V19C6 19.5523 5.55227 20 5 20H4Z" fill="black" fill-opacity="0.85"/>
</svg>

<svg width="24" height="24" viewBox="0 0 24 24" fill="none" xmlns="http://www.w3.org/2000/svg"><path fill-rule="evenodd" clip-rule="evenodd" d="M12 2C6.453 2 2 6.604 2 12.23V16a1 1 0 00-1 1v1a1 1 0 001 1v2a1 1 0 001 1h2a3 3 0 003-3v-3a3 3 0 00-3-3H4v-.77C4 7.662 7.605 4 12 4s8 3.661 8 8.23V13h-1a3 3 0 00-3 3v3a3 3 0 003 3h2a1 1 0 001-1v-2a1 1 0 001-1v-1a1 1 0 00-1-1v-3.77C22 6.605 17.547 2 12 2zm8 13h-1a1 1 0 00-1 1v3a1 1 0 001 1h1v-5zM4 20v-5h1a1 1 0 011 1v3a1 1 0 01-1 1H4z" fill="#000" fill-opacity=".85"/></svg>
